X:335
T: Baile an tSamhraidh
S: "Music of Ireland - The Big Session" (DJ Taylor)
Z: B.Black
L: 1/8
M: 12/8
R: slide
K: D
d3 A2 G F2 D A2 D|EDE G2 E =c2 E G2 E|\
d3 A2 G F2 D A2 D|EDE G2 E D6 :|
Add c2 d e2 g gfg|a2 e g2 e d2 =c A2 G|\
A2 d ded e2 g gfg|a2 e g2 e d3 d2 =c|
A2 d ded e2 g gfg|a2 e g2 e d2 =c ABc|\
ded A2 G E2 D A2 D|EDE G2 E D6 ||
